icons/desktop/20/custom-model-20.svg

<svg width="20" height="20" viewBox="0 0 20 20" fill="none" xmlns="http://www.w3.org/2000/svg">
<path fill-rule="evenodd" clip-rule="evenodd" d="M5 10.75C5.65474 10.75 6.25463 10.8092 6.78809 10.8984C8.05439 11.1092 9 12.1926 9 13.4932V16.0078C9 17.2596 8.10897 18.3761 6.84277 18.5928C6.12204 18.7154 5.49205 18.749 5 18.749C4.34487 18.749 3.74463 18.6899 3.21094 18.6006C1.94478 18.3897 1 17.3063 1 16.0059V13.4912C1 12.2395 1.89103 11.123 3.15723 10.9062C3.87796 10.7836 4.50795 10.75 5 10.75ZM5 12.5C4.69096 12.5 4.31602 12.5158 3.8916 12.5674L3.45215 12.6318C3.05865 12.6994 2.75 13.0592 2.75 13.4912V16.0059C2.75 16.4333 3.05932 16.8018 3.49902 16.875L3.84473 16.9258C4.20043 16.9712 4.58694 16.999 5 16.999C5.41188 16.999 5.94072 16.9705 6.54785 16.8672L6.69043 16.8291C7.01343 16.7092 7.25 16.3861 7.25 16.0078V13.4932C7.25 13.1193 7.01363 12.7905 6.66016 12.665L6.50098 12.624C6.05474 12.5493 5.55076 12.5 5 12.5Z" fill="black"/>
<path d="M13.8867 11.54C14.1677 10.82 15.3352 10.82 15.6162 11.54L16.2432 13.1445L17.9131 13.8535C18.271 13.9955 18.5008 14.3378 18.501 14.7246C18.501 15.1115 18.27 15.4536 17.9111 15.5957L16.3193 16.2275L15.6152 17.9082C15.4752 18.2682 15.1349 18.5 14.751 18.5C14.366 18.5 14.0258 18.2681 13.8857 17.9082L13.2588 16.3027L11.5889 15.5938C11.231 15.4517 11.001 15.1096 11.001 14.7227C11.0011 14.3358 11.2319 13.9935 11.5908 13.8516L13.1826 13.2197L13.2598 13.1436L13.8867 11.54Z" fill="black"/>
<path fill-rule="evenodd" clip-rule="evenodd" d="M5 1C5.65474 1 6.25463 1.05923 6.78809 1.14844C8.05439 1.35924 9 2.44262 9 3.74316V6.25781C9 7.50955 8.10897 8.62606 6.84277 8.84277C6.12204 8.96543 5.49204 8.99902 5 8.99902C4.34487 8.99902 3.74463 8.93988 3.21094 8.85059C1.94479 8.63966 1 7.5563 1 6.25586V3.74121C1 2.48947 1.89103 1.37296 3.15723 1.15625C3.87796 1.0336 4.50795 1 5 1ZM5 2.75C4.69096 2.75 4.31602 2.7658 3.8916 2.81738L3.45215 2.88184C3.05865 2.94939 2.75 3.30917 2.75 3.74121V6.25586C2.75 6.68331 3.05932 7.0518 3.49902 7.125L3.84473 7.17578C4.20043 7.22116 4.58694 7.24902 5 7.24902C5.41188 7.24902 5.94073 7.22049 6.54785 7.11719L6.69043 7.0791C7.01343 6.95924 7.25 6.63609 7.25 6.25781V3.74316C7.25 3.36929 7.01363 3.04051 6.66016 2.91504L6.50098 2.87402C6.05474 2.79935 5.55076 2.75 5 2.75Z" fill="black"/>
<path fill-rule="evenodd" clip-rule="evenodd" d="M14.75 1C15.4047 1 16.0046 1.05923 16.5381 1.14844C17.8044 1.35924 18.75 2.44262 18.75 3.74316V6.25781C18.75 7.50955 17.859 8.62606 16.5928 8.84277C15.872 8.96543 15.242 8.99902 14.75 8.99902C14.0949 8.99902 13.4946 8.93988 12.9609 8.85059C11.6948 8.63966 10.75 7.5563 10.75 6.25586V3.74121C10.75 2.48947 11.641 1.37296 12.9072 1.15625C13.628 1.0336 14.258 1 14.75 1ZM14.75 2.75C14.441 2.75 14.066 2.7658 13.6416 2.81738L13.2021 2.88184C12.8087 2.94939 12.5 3.30917 12.5 3.74121V6.25586C12.5 6.68331 12.8093 7.0518 13.249 7.125L13.5947 7.17578C13.9504 7.22116 14.3369 7.24902 14.75 7.24902C15.1619 7.24902 15.6907 7.22049 16.2979 7.11719L16.4404 7.0791C16.7634 6.95924 17 6.63609 17 6.25781V3.74316C17 3.36929 16.7636 3.04051 16.4102 2.91504L16.251 2.87402C15.8047 2.79935 15.3008 2.75 14.75 2.75Z" fill="black"/>
</svg>

<!-- This Source Code Form is subject to the terms of the Mozilla Public
   - License, v. 2.0. If a copy of the MPL was not distributed with this
   - file, You can obtain one at http://mozilla.org/MPL/2.0/. -->
<svg xmlns="http://www.w3.org/2000/svg" width="20" height="20" fill="context-fill" fill-opacity="context-fill-opacity" viewBox="0 0 20 20">
    <path fill-rule="evenodd" d="M5 10.75c.655 0 1.255.06 1.788.148A2.63 2.63 0 0 1 9 13.493v2.515c0 1.252-.891 2.368-2.157 2.585a10.842 10.842 0 0 1-3.632.008A2.63 2.63 0 0 1 1 16.006V13.49c0-1.251.891-2.368 2.157-2.585.721-.122 1.351-.156 1.843-.156m0 1.75c-.309 0-.684.016-1.108.067l-.44.065a.87.87 0 0 0-.702.86v2.514c0 .427.31.796.749.869l.346.05a9.1 9.1 0 0 0 2.703-.058l.142-.038a.875.875 0 0 0 .56-.821v-2.515a.88.88 0 0 0-.59-.828l-.159-.041A9 9 0 0 0 5 12.5" clip-rule="evenodd" />
    <path d="M13.887 11.54c.28-.72 1.448-.72 1.73 0l.626 1.605 1.67.709a.93.93 0 0 1 .588.87.93.93 0 0 1-.59.872l-1.592.631-.704 1.681a.92.92 0 0 1-.864.592.92.92 0 0 1-.865-.592l-.627-1.605-1.67-.71a.93.93 0 0 1-.588-.87c0-.387.23-.73.59-.871l1.592-.632.077-.076z" />
    <path fill-rule="evenodd" d="M5 1c.655 0 1.255.06 1.788.148A2.63 2.63 0 0 1 9 3.743v2.515c0 1.252-.891 2.368-2.157 2.585a10.843 10.843 0 0 1-3.632.008A2.63 2.63 0 0 1 1 6.256V3.74c0-1.252.891-2.368 2.157-2.585C3.878 1.034 4.508 1 5 1m0 1.75a9 9 0 0 0-1.108.067l-.44.065a.87.87 0 0 0-.702.86v2.514c0 .427.31.796.749.869l.346.05a9.1 9.1 0 0 0 2.703-.058l.142-.038a.875.875 0 0 0 .56-.821V3.743a.88.88 0 0 0-.59-.828l-.159-.041A9 9 0 0 0 5 2.75M14.75 1c.655 0 1.255.06 1.788.148a2.63 2.63 0 0 1 2.212 2.595v2.515c0 1.252-.891 2.368-2.157 2.585a10.843 10.843 0 0 1-3.632.008 2.63 2.63 0 0 1-2.211-2.595V3.74c0-1.252.891-2.368 2.157-2.585C13.628 1.034 14.258 1 14.75 1m0 1.75a9 9 0 0 0-1.108.067l-.44.065a.87.87 0 0 0-.702.86v2.514c0 .427.31.796.749.869l.346.05a9.1 9.1 0 0 0 2.703-.058l.142-.038a.875.875 0 0 0 .56-.821V3.743a.88.88 0 0 0-.59-.828l-.159-.041a9 9 0 0 0-1.501-.124" clip-rule="evenodd" />
</svg>
